X:1
T:A nostri preghi
T:Giovanni Animuccia
T:Source : Secondo libro delle Laude spirituali a tre et a quattro voci---Roma---A.Gardano---1583. Editor : André Vierendeels (29/11/17). Notes : Original clefs : G2, C1, C3 Editorial accidentals above the staff Music compiled by Francisco Soto de Langa 
T:A nostri preghi
T:©
T:©
C:Giovanni Animuccia
Z:©
%%score [ 1 2 3 ]
L:1/8
Q:1/4=120
M:2/2
K:C
V:1 treble nm="Soprano 1" snm="S 1"
V:2 treble nm="Soprano 2" snm="S 2"
V:3 treble-8 nm="Tenor" snm="T"
V:1
"^1)" d4 d2 e2 | d6 d2 | c2 B2 A2 A2 | B4 B4 :: A4 A2 A2 | _B4 A4 | A3 A A2 B2 | c4 B4 | %8
w: A no- stri|prie- ghi,|o mae- sta di-|vi- na,|gli'o- rec- ch'in-|chi- na|sol per tua pie-|ta- te,|
w: Mi- ra be-|ni- gno|dal tuo seg- gio|san- to,|il no- stro|pian- to'et|con se- re- no'as-|pet- to,|
 z2 B2 G2 G2 | A4 A2 B2 | c3 c c2 d2 | B4 B2 c2 | A2 G2 A4 | G8 :| %14
w: et per bon-|te'ac- ce- ta|de- i de- vo-|ti toi ser-|v'i vo- *|ti.|
w: al no- stro|pet- t'o- gni|te- ne- bra sgom-|bra, che il|cuor n'in- gom-|bra.|
V:2
"^2)""^1)" B4 B2 c2 | B6 B2 | A2 G2 G2 ^F2 | G4 G4 ::"^-natural" F4 E2 F2 | G4 F4 | F3 F E2 G2- | %7
w: A no- stri|prie- ghi,|o mae- sta di-|vi- na,|gli'o- rec- ch'in-|chi- na|sol per tua pie-|
w: Pre- do- na'i|fal- li'et|tan- te col- pe|gra- vi,|tua pie- tà|la- vi'e|rom- pi la ca-|
 G2 ^F2 G4 | z2 G2 E2 G2 | F4 F2 G2 | A3 A A2 F2 | G4 G2 A2 |"^#" F2 G4 F2 | G8 :| %14
w: * ta- te,|et per bon-|te'ac- ce- ta|de- i de- vo-|ti toi ser-|v'i vo- *|ti.|
w: * te- ne,|sol- lie- v'al|be- ne con|la man po- ten-|te l'al- ma|gia- cen- *|te.|
V:3
"^3)""^1)""^4)" g4 g2 c2 | g6 G2 | A2 B2 c2 d2 | G4 G4 :: d4 ^c2 d2 | G4 d4 | d2 d2 c2 B2 | A4 G4 | %8
w: A no- stri|prie- ghi,|o mae- sta di-|vi- na,|gli'o- rec- ch'in-|chi- na|sol per tua pie-|ta- te,|
w: Sen- za te|ci som-|mer- gon le pro-|fon- de,|hor- ri- bil'|on- de|dell' e- ter- na|mor- te,|
 z2 G2 c2 e2 | d4 d2 g2 | f3 f f2 d2 | e4 e2 A2 | d2 e2 d4 | G8 :| %14
w: et per bon-|ta'ac- ce- ta|de- i de- vo-|ti toi ser-|v'i vo- *|ti.|
w: ma'l brac- cio,|for- te tuo|n'er- ge'à le stel-|le lu- cen-|ti et bel-|le.|

